!!!OTL: Mary's Dream
!!!id: H0001A
**kern
*clefF4
*k[f#]
*G:
*M4/4
{8.b
16cc
=1
4dd
8.g
16a
4g
8.b
16cc
=2
8.dd
16cc
8dd
8ee
4dd}
{8.b
16cc
=3
4dd
8.g
16a
4g
8a
8b
=4
8cc
8b
8a
8g
4f#}
{8.b
16a
=5
4.g
8f#
4f#
8d
8f#
=6
8.b
16cc
8cc
16dd
16ee
4dd}
{8cc
8b
=7
8cc
8dd
8ff#
8gg
4.dd
8cc
=8
4b
8.a
16g
4g}
{8.dd
16ff#
=9
4.gg
8ff#
8ee
8dd
8cc
8b
=10
4cc
8.dd
16ff#
4ff#}
{8dd
8ff#
=11
4.gg
8ff#
8ee
8dd
8cc
8b
=12
8.b
32cc
32dd
16cc
16b
16a
16g
4f#}
{8.b
16a
=13
4.g
8f#
4f#
8d
8f#
=14
8.b
16cc
8.cc
32dd
32ee
4.dd}
{16cc
16b
=15
8cc
8dd
8ff#
8gg
4.dd
8cc
=16
4b
8.a
16g
4g}
==
*-
!!!minrhy: 32
!!!meter: 4/4
!!!cut: Mary's Dream
!!!key: H0001A 32  G 4/4
!!!bem: Vorschlge Triller,Bindungen weggelassen, original fis
!!!fog: a--aw-b--c--d--dv--bv-cv-
!! Haydn: Volksliedbearbeitungen, Bd1
